run/templates/normal/set_symbol/orzhov.svg

<!-- Generated by IcoMoon.io -->
<svg version="1.1" xmlns="http://www.w3.org/2000/svg" width="32" height="32" viewBox="0 0 32 32">
<title>orzhov</title>
<path fill="#000000" d="M16.001 0.001c0.333 2.951 0.66 5.901 0.992 8.852 0.409-0.369 0.813-0.742 1.221-1.111 0.176 0.549 0.351 1.097 0.525 1.646 0.514-0.261 1.024-0.529 1.538-0.792 0.028 0.606 0.056 1.213 0.085 1.819 1.519-1.108 3.036-2.218 4.554-3.327-1.111 1.517-2.219 3.035-3.328 4.554 0.606 0.028 1.211 0.058 1.817 0.084-0.26 0.514-0.529 1.024-0.792 1.537 0.549 0.177 1.098 0.35 1.647 0.527-0.369 0.408-0.742 0.813-1.111 1.222 2.951 0.33 5.9 0.66 8.851 0.99-2.95 0.333-5.9 0.66-8.85 0.992 0.369 0.409 0.741 0.813 1.111 1.221-0.549 0.177-1.098 0.35-1.646 0.526 0.262 0.514 0.53 1.024 0.792 1.537-0.606 0.029-1.212 0.058-1.819 0.086 1.109 1.518 2.217 3.035 3.326 4.552-1.517-1.108-3.034-2.218-4.552-3.325-0.028 0.606-0.056 1.212-0.085 1.818-0.512-0.264-1.024-0.53-1.536-0.793-0.176 0.549-0.349 1.098-0.526 1.648-0.409-0.371-0.815-0.743-1.224-1.113-0.33 2.95-0.659 5.9-0.99 8.85-0.333-2.951-0.66-5.901-0.992-8.852-0.408 0.369-0.814 0.741-1.221 1.111-0.177-0.549-0.35-1.097-0.525-1.646-0.514 0.261-1.025 0.529-1.538 0.792-0.028-0.606-0.056-1.213-0.085-1.819-1.518 1.107-3.034 2.216-4.551 3.325 1.109-1.517 2.217-3.034 3.325-4.552-0.606-0.029-1.212-0.057-1.818-0.086 0.262-0.513 0.53-1.024 0.792-1.536-0.549-0.177-1.098-0.35-1.647-0.526 0.369-0.408 0.742-0.813 1.11-1.222-2.95-0.331-5.901-0.659-8.852-0.991 2.95-0.332 5.901-0.66 8.852-0.991-0.369-0.409-0.742-0.813-1.111-1.222 0.549-0.176 1.097-0.35 1.646-0.524-0.261-0.514-0.53-1.024-0.792-1.538 0.606-0.029 1.212-0.057 1.818-0.086-1.107-1.518-2.217-3.035-3.325-4.552 1.516 1.109 3.033 2.218 4.55 3.325 0.029-0.606 0.057-1.212 0.086-1.818 0.512 0.264 1.024 0.529 1.536 0.793 0.177-0.549 0.349-1.098 0.526-1.647 0.409 0.37 0.815 0.743 1.224 1.113l0.99-8.851zM15.822 10.142c-0.52 0.035-0.298 0.012-0.667 0.058-1.933 0.266-3.672 1.577-4.477 3.351-0.618 1.326-0.706 2.886-0.245 4.274 0.409 1.254 1.258 2.356 2.363 3.077 0.971 0.641 2.138 0.979 3.301 0.956 1.24-0.015 2.467-0.444 3.45-1.198 1.073-0.815 1.854-2.008 2.159-3.322 0.294-1.242 0.167-2.579-0.361-3.741-0.547-1.219-1.524-2.239-2.719-2.837-0.732-0.368-1.538-0.578-2.357-0.616-0.149-0.007-0.297-0.002-0.446-0.004zM16.098 10.897c0.865 0.018 1.687 0.258 2.441 0.676 0.982 0.563 1.767 1.461 2.192 2.51 0.463 1.135 0.496 2.439 0.090 3.595-0.358 1.032-1.058 1.939-1.963 2.549-0.827 0.564-1.823 0.872-2.824 0.875-1.022 0.009-2.044-0.299-2.888-0.875-0.905-0.611-1.606-1.518-1.964-2.55-0.372-1.063-0.377-2.25-0.013-3.315 0.354-1.049 1.061-1.972 1.978-2.59 0.762-0.518 1.666-0.822 2.586-0.868l0.366-0.006z"></path>
</svg>

<?xml version="1.0" encoding="UTF-8" standalone="no"?>
<!-- Generated by IcoMoon.io -->

<svg
   version="1.1"
   width="32.000999"
   height="32"
   viewBox="0 0 32.000999 32"
   id="svg6"
   sodipodi:docname="orzhov.svg"
   inkscape:version="1.1.1 (3bf5ae0d25, 2021-09-20)"
   xmlns:inkscape="http://www.inkscape.org/namespaces/inkscape"
   xmlns:sodipodi="http://sodipodi.sourceforge.net/DTD/sodipodi-0.dtd"
   xmlns="http://www.w3.org/2000/svg"
   xmlns:svg="http://www.w3.org/2000/svg">
  <defs
     id="defs10" />
  <sodipodi:namedview
     id="namedview8"
     pagecolor="#ffffff"
     bordercolor="#666666"
     borderopacity="1.0"
     inkscape:pageshadow="2"
     inkscape:pageopacity="0.0"
     inkscape:pagecheckerboard="0"
     showgrid="false"
     inkscape:zoom="25.75"
     inkscape:cx="15.980583"
     inkscape:cy="15.980583"
     inkscape:window-width="1920"
     inkscape:window-height="1009"
     inkscape:window-x="-8"
     inkscape:window-y="-8"
     inkscape:window-maximized="1"
     inkscape:current-layer="svg6" />
  <title
     id="title2">orzhov</title>
  <path
     fill="#000000"
     d="m 16.002,0 c 0.333,2.951 0.66,5.901 0.992,8.852 0.409,-0.369 0.813,-0.742 1.221,-1.111 0.176,0.549 0.351,1.097 0.525,1.646 0.514,-0.261 1.024,-0.529 1.538,-0.792 0.028,0.606 0.056,1.213 0.085,1.819 1.519,-1.108 3.036,-2.218 4.554,-3.327 -1.111,1.517 -2.219,3.035 -3.328,4.554 0.606,0.028 1.211,0.058 1.817,0.084 -0.26,0.514 -0.529,1.024 -0.792,1.537 0.549,0.177 1.098,0.35 1.647,0.527 -0.369,0.408 -0.742,0.813 -1.111,1.222 2.951,0.33 5.9,0.66 8.851,0.99 -2.95,0.333 -5.9,0.66 -8.85,0.992 0.369,0.409 0.741,0.813 1.111,1.221 -0.549,0.177 -1.098,0.35 -1.646,0.526 0.262,0.514 0.53,1.024 0.792,1.537 -0.606,0.029 -1.212,0.058 -1.819,0.086 1.109,1.518 2.217,3.035 3.326,4.552 -1.517,-1.108 -3.034,-2.218 -4.552,-3.325 -0.028,0.606 -0.056,1.212 -0.085,1.818 -0.512,-0.264 -1.024,-0.53 -1.536,-0.793 -0.176,0.549 -0.349,1.098 -0.526,1.648 -0.409,-0.371 -0.815,-0.743 -1.224,-1.113 -0.33,2.95 -0.659,5.9 -0.99,8.85 -0.333,-2.951 -0.66,-5.901 -0.992,-8.852 -0.408,0.369 -0.814,0.741 -1.221,1.111 -0.177,-0.549 -0.35,-1.097 -0.525,-1.646 -0.514,0.261 -1.025,0.529 -1.538,0.792 C 11.698,22.799 11.67,22.192 11.641,21.586 10.123,22.693 8.607,23.802 7.09,24.911 8.199,23.394 9.307,21.877 10.415,20.359 9.809,20.33 9.203,20.302 8.597,20.273 8.859,19.76 9.127,19.249 9.389,18.737 8.84,18.56 8.291,18.387 7.742,18.211 8.111,17.803 8.484,17.398 8.852,16.989 5.902,16.658 2.951,16.33 0,15.998 2.95,15.666 5.901,15.338 8.852,15.007 8.483,14.598 8.11,14.194 7.741,13.785 8.29,13.609 8.838,13.435 9.387,13.261 9.126,12.747 8.857,12.237 8.595,11.723 9.201,11.694 9.807,11.666 10.413,11.637 9.306,10.119 8.196,8.602 7.088,7.085 c 1.516,1.109 3.033,2.218 4.55,3.325 0.029,-0.606 0.057,-1.212 0.086,-1.818 0.512,0.264 1.024,0.529 1.536,0.793 0.177,-0.549 0.349,-1.098 0.526,-1.647 0.409,0.37 0.815,0.743 1.224,1.113 L 16,0 Z m -0.179,10.141 c -0.52,0.035 -0.298,0.012 -0.667,0.058 -1.933,0.266 -3.672,1.577 -4.477,3.351 -0.618,1.326 -0.706,2.886 -0.245,4.274 0.409,1.254 1.258,2.356 2.363,3.077 0.971,0.641 2.138,0.979 3.301,0.956 1.24,-0.015 2.467,-0.444 3.45,-1.198 1.073,-0.815 1.854,-2.008 2.159,-3.322 0.294,-1.242 0.167,-2.579 -0.361,-3.741 -0.547,-1.219 -1.524,-2.239 -2.719,-2.837 -0.732,-0.368 -1.538,-0.578 -2.357,-0.616 -0.149,-0.007 -0.297,-0.002 -0.446,-0.004 z m 0.276,0.755 c 0.865,0.018 1.687,0.258 2.441,0.676 0.982,0.563 1.767,1.461 2.192,2.51 0.463,1.135 0.496,2.439 0.09,3.595 -0.358,1.032 -1.058,1.939 -1.963,2.549 -0.827,0.564 -1.823,0.872 -2.824,0.875 -1.022,0.009 -2.044,-0.299 -2.888,-0.875 -0.905,-0.611 -1.606,-1.518 -1.964,-2.55 -0.372,-1.063 -0.377,-2.25 -0.013,-3.315 0.354,-1.049 1.061,-1.972 1.978,-2.59 0.762,-0.518 1.666,-0.822 2.586,-0.868 L 16.1,10.897 Z"
     id="path4" />
</svg>
